X: 36617
T: Shan Van Vocht, The
R: reel
M: 4/4
K: Bdorian
ce|:fgag f2ec|B2 BA BdcB|ABcd e2cB|A2 AG A2 FA|
BABc d2cA|Bdef a2bc'|bafe f2ec|B2BA B2ag:|

